agot-bg-game-server/public/images/icons/crown.svg

<svg style="height: 512px; width: 512px;" xmlns="http://www.w3.org/2000/svg" viewBox="0 0 512 512"><g class="" style="touch-action: none;" transform="translate(0,0)"><path d="M408.256 119.46l-37.7 52.165 19.57 44.426 34.8-37.214-16.67-59.375zm86.074 12.513L384.44 249.498 334.01 135.02l-75.162 132.947-86.948-131.78-33.334 114.122L17.922 132.83l39.3 127.6c1.945-.348 3.94-.54 5.98-.54 18.812 0 34.26 15.452 34.26 34.262 0 13.823-8.346 25.822-20.235 31.22l5.337 17.33c12.425 25.466 71.863 45.152 176.582 47.206 110.805 2.174 178.12-17.54 189.854-47.207h-.002l4.357-20.26c-16.836-2.114-30.02-16.612-30.02-33.986 0-18.81 15.45-34.262 34.263-34.262 3.513 0 6.91.54 10.11 1.54l26.622-123.762zm-391.77 2.04l1.22 56.337 25.56 24.89 9.592-32.842-36.37-48.386zm150.585 2.91l-24.483 51.36 28.955 43.885 24.922-44.08-29.395-51.166zm204.453 135.962c-8.712 0-15.575 6.862-15.575 15.572 0 8.71 6.863 15.574 15.575 15.574s15.572-6.863 15.572-15.573-6.86-15.572-15.572-15.572zM63.2 278.58c-8.71 0-15.573 6.864-15.573 15.574s6.862 15.573 15.574 15.573c8.713 0 15.573-6.862 15.573-15.573 0-8.71-6.86-15.574-15.572-15.574zm130.33 17.842c18.812 0 34.26 15.45 34.26 34.262 0 18.81-15.448 34.26-34.26 34.26-18.813 0-34.262-15.45-34.262-34.26s15.45-34.262 34.26-34.262zm131.234 0c18.812 0 34.26 15.45 34.26 34.262 0 18.81-15.448 34.26-34.26 34.26-18.813 0-34.262-15.45-34.262-34.26s15.45-34.262 34.262-34.262zm-131.235 18.69c-8.713 0-15.573 6.86-15.573 15.572 0 8.71 6.86 15.574 15.572 15.574 8.71 0 15.572-6.864 15.572-15.574s-6.86-15.573-15.573-15.573zm131.234 0c-8.712 0-15.573 6.86-15.573 15.572 0 8.71 6.862 15.574 15.574 15.574s15.574-6.864 15.574-15.574-6.862-15.573-15.574-15.573z" fill="#fff" fill-opacity="1" transform="translate(0, 0) scale(1, 1) rotate(-360, 256, 256)"></path></g></svg>

<svg style="height: 512px; width: 512px;" xmlns="http://www.w3.org/2000/svg" viewBox="0 0 512 512"><g class="" style="" transform="translate(0,0)" id="g225"><g id="g223"><path d="M408.256 119.46L370.556 171.625L390.126 216.051L424.926 178.837L408.256 119.462Z" class="" fill="#FFFFFF" fill-opacity="1" /><path d="M 494.33,131.973 384.44,249.498 334.01,135.02 258.848,267.967 171.9,136.187 138.566,250.309 17.922,132.83 c 23.847732,77.14639 48.553022,157.6288 64.642,209.872 12.425,25.466 71.863,45.152 176.582,47.206 110.805,2.174 178.12,-17.54 189.854,-47.207 h -0.002 c 11.7516,-54.77798 30.22199,-139.25496 45.332,-210.73 z" class="" fill="#FFFFFF" fill-opacity="1" /><path d="M102.56 134.013L103.78 190.35L129.34 215.24L138.932 182.398L102.562 134.012Z" class="" fill="#FFFFFF" fill-opacity="1" /><path d="M253.145 136.923L228.662 188.283L257.617 232.168L282.539 188.088L253.144 136.922Z" class="" fill="#FFFFFF" fill-opacity="1" /><path d="M193.53 296.422C212.342 296.422 227.79 311.872 227.79 330.684C227.79 349.494 212.342 364.944 193.53 364.944C174.717 364.944 159.268 349.494 159.268 330.684C159.268 311.874 174.718 296.422 193.528 296.422Z" class="" fill="#FFFFFF" fill-opacity="1" /><path d="M324.764 296.422C343.576 296.422 359.024 311.872 359.024 330.684C359.024 349.494 343.576 364.944 324.764 364.944C305.951 364.944 290.502 349.494 290.502 330.684C290.502 311.874 305.952 296.422 324.764 296.422Z" class="" fill="#FFFFFF" fill-opacity="1" /><path d="M193.529 315.112C184.816 315.112 177.956 321.972 177.956 330.684C177.956 339.394 184.816 346.258 193.528 346.258C202.238 346.258 209.1 339.394 209.1 330.684C209.1 321.974 202.24 315.111 193.527 315.111Z" class="" fill="#FFFFFF" fill-opacity="1" /><path d="M324.763 315.112C316.051 315.112 309.19 321.972 309.19 330.684C309.19 339.394 316.052 346.258 324.764 346.258C333.476 346.258 340.338 339.394 340.338 330.684C340.338 321.974 333.476 315.111 324.764 315.111Z" class="" fill="#FFFFFF" fill-opacity="1" /></g></g></svg>
